X:1
T:G Major                 Jeremiah Ingalls, 1805
T:John Leland, 1754-1841           886. 886.
T:Complainer
T:Transcribed from Ingalls' Christian Harmony, 1805.
%%score [ 1 2 3 ]
L:1/8
Q:1/4=180
M:4/4
K:G
V:1 treble nm="Tr." snm="Tr."
V:2 treble-8 nm="T." snm="T."
V:3 bass nm="B." snm="B."
V:1
"^1. I    set    myself   against   the  Lord,   Despised  his  spirit   and   his   word,   And  wished  to  take  his  place;    It  vexed  me  so,  that\n2. Some walk too straight to make a show,  While others far too crooked go;   And   both   of   these    I   scorn;   Some odd, fan–tas–tic" G4 | %1
 B2 B2 B2 G2 | e2 e2 e2 c2 | B2 B2 B2 G2 | e2 e2 e2 c2 | B2 d2 d2 ^c2 | d6 d2 | B2 B2 B2 G2 | %8
"^1. I  must  die,  And  pe–rish  too, e –ter–nal–ly,     Or    else   be  saved  by   grace,   Or  else  be  saved  by   grace.         Of      eve–ry  prea–cher \n2. motion make; Some stoop too low, some stand too straight, No one is faultless born, No one is faultless born.      With   no   pro –fes –sor" e2 e2 e2 c2 | %9
 B2 B2 B2 G2 | e2 e2 e2 c2 | B2 d2 d2 ^c2 | d6 d2 | d2 c2 B2 A2 | B8 | z4 B4 | G2 G2 F2 F2 | %17
"^1. I'd  com–plain;      One spoke thro' pride, and one for gain;   A – no – ther's  learning  small;    One spoke too fast, and one too slow;  One\n2. I   could  join;   Some dressed too mean, and some too fine,  And  some would talk too  long;  Some  had  a  tone, some had no gift;  One" E2 E2 F4 | %18
 z2 F2 G2 G2 | F2 F2 E2 E2 | F6 A2 | G2 F2 E2 F2 | G6 G2 | B2 B2 B2 G2 | e2 e2 e2 c2 | %25
"^1. prayed too loud, and one too low;  A–no–ther   had     no      call,       A – no – ther   had   no      call.\n2. talked  too slow, and one too swift;  And all of them were wrong,    And  all  of  them  were   wrong." B2 B2 B2 G2 | %26
 e2 e2 e2 c2 | B2 d2 d2 ^c2 | d6 d2 | d2 c2 B2 A2 | B8 |] %31
V:2
"^3. I thought they'd better keep at home,  Than to exhort where'er they come,  And   tell   us    of   their   joys;. They'd  better  keep their\n4. The  horrid  load  of guilt and shame,   The inward consciousness of blame   Did wound my frighted  soul;   I've sinned so much a –" G4 | %1
 d2 d2 d2 B2 | g2 g2 g2 e2 | d2 d2 d2 B2 | g2 g2 g2 e2 | d2 B2 A2 G2 | A6 A2 | d2 d2 d2 B2 | %8
"^3.gardens free  From weeds, than to examine me,  And vex me with their noise,  And vex me with their noise.     Kindred and  neighbors,\n4. –gainst the Lord, Despised his goodness  and his word,  How can I be made whole? How can I be made whole?  \"Why, there is balm in" g2 g2 g2 e2 | %9
 d2 d2 d2 B2 | g2 g2 g2 e2 | d2 B2 A2 G2 | A6 c2 | B2 A2 G2 F2 | G8 | z4 G4 | B2 B2 A2 A2 | %17
"^3. too, were bad,       And  no  true  friend  was  to  be    had;     My   ru – lers,  too, were   vile;    At   length,   I   was   re–duced   to   see   The\n4. Gi – le – ad,            And   a    phy – si – cian  may  be  had,    And   bal–sam  too  most   free;   Only be – lieve on  God's  dear  son,  Through" G2 G2 A4 | %18
 z2 A2 B2 B2 | A2 A2 G2 G2 | A6 c2 | B2 A2 G2 F2 | G6 G2 | d2 d2 d2 c2 | g2 g2 g2 e2 | %25
"^3. fault  did  most–ly   lie  in  me,   And   had  done  all     the    while,    And  had  done  all   the  while.\n4. him   the  vic – to – ry   is  won:  Christ  Je – sus   died  for    thee,      Christ  Je – sus  died  for   thee." d2 d2 d2 B2 | %26
 g2 g2 g2 e2 | d2 B2 A2 G2 | A6 c2 | B2 A2 G2 F2 | G8 |] %31
V:3
"^5. O, Christ's free love, a  boundless   sea!  What!  to  expire    for    such   as  me?   \"Yes,  'tis   a    truth    di – vine.\"   My heart did melt, my" G,4 | %1
 G,2 G,2 G,2 G,2 | C,2 C,2 C,2 C,2 | D,2 D,2 D,2 D,2 | E,2 E,2 E,2 E,2 | G,2 G,2 F,2 E,2 | %6
 D,6 D,2 | G,2 G,2 G,2 G,2 | %8
"^5. soul o'er-run  With love, to see what God had done  For souls so vile as mine,    For  souls   so  vile  as  mine.         Now,    I    can  hear   a" C,2 C,2 C,2 C,2 | %9
 D,2 D,2 D,2 D,2 | E,2 E,2 E,2 E,2 | G,2 G,2 F,2 E,2 | D,6 D,2 | G,2 D,2 E,2 D,2 | G,,8 | z4 G,4 | %16
 G,2 G,2 D,2 D,2 | %17
"^5. child  proclaim      The  joyful  news,  and  bless  the  name     Of   Je – sus  Christ, my  King;      I   scorn  no  sect – the saints are one;  With" E,2 E,2 D,4 | %18
 z2 D,2 G,2 G,2 | D,2 D,2 E,2 E,2 | D,6 D,2 | G,2 D,2 E,2 D,2 | G,,6 G,,2 | G,2 G,2 G,2 G,2 | %24
 C,2 C,2 C,2 C,2 | %25
"^5. my complaints I now have done.  And  God's  free  grace  I   sing,      And  God's  free  grace  I   sing." D,2 D,2 D,2 D,2 | %26
 E,2 E,2 E,2 E,2 | G,2 G,2 F,2 E,2 | D,6 D,2 | G,2 D,2 E,2 D,2 | G,,8 |] %31

